assets/icons/Food-Drink/Food/food-cheese-1--cook-cheese-animal-products-cooking-nutrition-dairy-food.svg

<svg xmlns="http://www.w3.org/2000/svg" width="14" height="14" viewBox="0 0 14 14"><g fill="none" fill-rule="evenodd" stroke-linecap="round" stroke-linejoin="round"><line x1=".314" x2="12.724" y1="5.75" y2="5.75" stroke="currentColor"/><path stroke="currentColor" d="M8.813892,0.77 L8.723892,0.75 L0.473892,5.6 C0.328949815,5.68317714 0.235143979,5.83326648 0.223892,6 L0.223892,7.75 C1.223892,7.75 2.723892,7.75 2.723892,9.5 C2.723892,11.25 1.193892,11.25 0.223892,11.25 L0.223892,12.75 C0.223892,13.0261424 0.447749625,13.25 0.723892,13.25 L12.723892,13.25 C13.0000344,13.25 13.223892,13.0261424 13.223892,12.75 L13.223892,5.75 C12.9243606,3.33812527 11.1718259,1.35907248 8.813892,0.77 Z"/><circle cx="9.724" cy="8.25" r="1" stroke="currentColor"/><circle cx="6.224" cy="10.25" r="1" stroke="currentColor"/></g></svg>

<svg width="14" height="14" viewBox="0 0 14 14" xmlns="http://www.w3.org/2000/svg"><g fill="none" fill-rule="evenodd" stroke-linecap="round" stroke-linejoin="round" transform="matrix(.99859 0 0 1.03853 .286 -.27)" stroke="currentColor"><path d="M.314 5.75h12.41M8.814.77l-.09-.02L.474 5.6a.5.5 0 0 0-.25.4v1.75c1 0 2.5 0 2.5 1.75s-1.53 1.75-2.5 1.75v1.5a.5.5 0 0 0 .5.5h12a.5.5 0 0 0 .5-.5v-7A5.88 5.88 0 0 0 8.814.77z"/><circle cx="9.724" cy="8.25" r="1"/><circle cx="6.224" cy="10.25" r="1"/></g></svg>
